svg/u1f4aa_1f3fb.svg

<svg viewBox="0 0 128 128" xmlns="http://www.w3.org/2000/svg">
  <linearGradient id="a" gradientUnits="userSpaceOnUse" x1="63.565" x2="63.565" y1="114.7" y2="18.8">
    <stop offset="0" stop-color="#EDC391"/>
    <stop offset=".1384" stop-color="#F0CB9E"/>
    <stop offset=".3962" stop-color="#F5D5AF"/>
    <stop offset=".6731" stop-color="#F8DBBA"/>
    <stop offset="1" stop-color="#F9DDBD"/>
  </linearGradient>
  <path d="m72.25 122.57c-11.93 0-29.57-0.34-44.92-3.27-20.5-3.91-22.03-11.96-21.84-19.87 0.16-6.73 3.24-29.26 6.28-38.48 4.6-13.94 11.63-27.8 15.91-33.76 5.87-8.17 20.75-21.3 35.71-21.75h0.14c1.98 0 3.95 1.3 5.13 3.39l5.85 10.32c1.4 2.48 1.37 5.53-0.08 7.97-1.19 2-4.65 2.54-4.68 2.55l-2.75 0.4 1.85 2.09c-0.01 0 0.61 0.98-0.85 3.1-1.3 1.89-3.83 2.8-7.72 2.8-3.65 0-7.81-0.83-11.15-1.49-0.2-0.04-0.41-0.06-0.62-0.06-1.24 0-2.52 0.69-3.68 1.99-1.5 1.67-6.23 8.46-4.31 25.67 0.95 8.54-1.88 16.23-1.91 16.31l-1.19 3.18 3.15-1.26c0.03-0.02 4.83-1.9 11.43-1.9h0.7l0.45-0.54c0.14-0.17 13.94-16.48 31.85-16.48 11.7 0 22.9 4.74 29.96 12.68 4.98 5.6 7.31 12.23 6.55 18.66-2.94 24.98-26.51 27.68-36.51 27.68-1.4 0-3.04 0.01-4.87 0.03-2.33 0.02-4.98 0.04-7.88 0.04z" fill="url(#a)"/>
  <path d="m63.54 6.95c1.42 0 2.92 1.03 3.83 2.63l5.85 10.32c1.14 2.01 1.11 4.49-0.06 6.47-0.57 0.96-2.5 1.66-3.6 1.83l-5.53 0.78 3.44 3.88c-0.01 0.2-0.12 0.71-0.7 1.55-0.99 1.43-3.17 2.16-6.49 2.16-3.5 0-7.58-0.81-10.85-1.46-0.3-0.06-0.61-0.09-0.91-0.09-1.17 0-2.96 0.43-4.8 2.49-4.27 4.77-6.02 14.8-4.69 26.83 0.9 8.13-1.8 15.55-1.83 15.62l-2.36 6.31 6.28-2.47c0.03-0.03 4.6-1.8 10.88-1.8h1.41l0.9-1.08c0.13-0.16 13.52-15.94 30.7-15.94 11.28 0 22.06 4.55 28.84 12.18 4.69 5.28 6.89 11.49 6.18 17.49-1.09 9.24-5.2 16.18-12.23 20.65-7.44 4.71-16.5 5.7-22.8 5.7-1.4 0-3.04 0.01-4.88 0.03-2.33 0.02-4.98 0.04-7.86 0.04-11.87 0-29.42-0.34-44.64-3.24-8.97-1.71-14.79-4.3-17.82-7.91-2.61-3.11-2.88-6.86-2.8-10.45 0.16-6.66 3.2-28.94 6.21-38.04 4.39-13.3 11.43-27.4 15.71-33.35 5.7-7.94 20.12-20.69 34.53-21.12l0.09-0.01m0-3h-0.18c-15.81 0.47-31.1 14.31-36.88 22.37-4.41 6.15-11.54 20.3-16.12 34.16-3.02 9.16-6.19 31.77-6.36 38.91-0.21 8.73 1.85 17.33 23.06 21.38 15.09 2.88 32.47 3.3 45.2 3.3 5.17 0 9.57-0.07 12.74-0.07 17 0 35.39-6.79 38-29 2-17-16-33.02-38-33.02-18.85 0-33 17.02-33 17.02-7 0-12 2-12 2s3-8 2-17c-1.99-17.94 3.4-25.99 6.51-25.99 0.11 0 0.22 0.01 0.33 0.03 3.46 0.69 7.66 1.52 11.44 1.52s7.14-0.83 8.95-3.45c2.25-3.25 0.74-4.95 0.74-4.95s4.17-0.59 5.76-3.27c1.73-2.91 1.77-6.53 0.1-9.48l-5.86-10.32c-1.33-2.35-3.74-4.14-6.43-4.14z" fill="#E6B77E"/>
  <path d="m62.78 18.52c-2.51-0.47-5.5-0.57-7.83 0.61-2.89 1.47-3.9 5.28-2.22 8.05 2.52 4.13 9.33 4.53 13.64 4.36 1.92-0.08 1.93-3.08 0-3-3.11 0.12-6.99-0.04-9.7-1.69-1.94-1.19-2.6-3.91-0.21-5.12 1.54-0.79 3.85-0.62 5.51-0.31 1.9 0.34 2.71-2.55 0.81-2.9z" fill="#E6B77E"/>
  <path d="m36.2 82.74c-4.8 6.99-6.04 14.02-4.34 22.3 0.39 1.89 3.28 1.09 2.89-0.8-1.54-7.52-0.32-13.64 4.04-19.99 1.1-1.59-1.5-3.09-2.59-1.51z" fill="#E6B77E"/>
  <path d="m47.77 34.91c-2.22-0.32-5.39-3.01-6.71-5.85-0.4-0.86-0.23-2.08-1.8-2.17-2.17-0.12-0.58 4.24 0.16 5.31 2.03 2.91 4.78 4.54 8.38 4.8 1.93 0.14 1.95-1.81-0.03-2.09z" fill="#E6B77E"/>
  <path d="m53.55 92.4c2.52 10.41 11.96 18.17 22.37 19.58 10.05 1.36 26.93-0.97 31.88-11.72 0.8-1.74-1.78-3.27-2.59-1.51-4.53 9.85-20.7 11.71-29.78 10.15-8.89-1.53-16.83-8.37-18.98-17.29-0.46-1.88-3.35-1.09-2.9 0.79z" fill="#E6B77E"/>
</svg>

<svg viewBox="0 0 128 128" xmlns="http://www.w3.org/2000/svg">
  <defs>
    <linearGradient id="a" gradientUnits="userSpaceOnUse" x1="63.565" x2="63.565" y1="114.7" y2="18.8">
      <stop offset="0" stop-color="#EDC391"/>
      <stop offset=".1384" stop-color="#F0CB9E"/>
      <stop offset=".3962" stop-color="#F5D5AF"/>
      <stop offset=".6731" stop-color="#F8DBBA"/>
      <stop offset="1" stop-color="#F9DDBD"/>
    </linearGradient>
  </defs>
  <path d="M72.25,122.57 C60.32,122.57 42.68,122.23 27.33,119.3 C6.83,115.39 5.3,107.34 5.49,99.43 C5.65,92.7 8.73,70.17 11.77,60.95 C16.37,47.01 23.4,33.15 27.68,27.19 C33.55,19.02 48.43,5.89 63.39,5.44 L63.53,5.44 C65.51,5.44 67.48,6.74 68.66,8.83 L74.51,19.15 C75.91,21.63 75.88,24.68 74.43,27.12 C73.24,29.12 69.78,29.66 69.75,29.67 L67,30.07 L68.85,32.16 C68.84,32.16 69.46,33.14 68,35.26 C66.7,37.15 64.17,38.06 60.28,38.06 C56.63,38.06 52.47,37.23 49.13,36.57 C48.93,36.53 48.72,36.51 48.51,36.51 C47.27,36.51 45.99,37.2 44.83,38.5 C43.33,40.17 38.6,46.96 40.52,64.17 C41.47,72.71 38.64,80.4 38.61,80.48 L37.42,83.66 L40.57,82.4 C40.6,82.38 45.4,80.5 52,80.5 L52.7,80.5 L53.15,79.96 C53.29,79.79 67.09,63.48 85,63.48 C96.7,63.48 107.9,68.22 114.96,76.16 C119.94,81.76 122.27,88.39 121.51,94.82 C118.57,119.8 95,122.5 85,122.5 C83.6,122.5 81.96,122.51 80.13,122.53 C77.8,122.55 75.15,122.57 72.25,122.57 Z" fill="url(#a)"/>
  <path d="M63.54,6.95 C64.96,6.95 66.46,7.98 67.37,9.58 L73.22,19.9 C74.36,21.91 74.33,24.39 73.16,26.37 C72.59,27.33 70.66,28.03 69.56,28.2 L64.03,28.98 L67.47,32.86 C67.46,33.06 67.35,33.57 66.77,34.41 C65.78,35.84 63.6,36.57 60.28,36.57 C56.78,36.57 52.7,35.76 49.43,35.11 C49.13,35.05 48.82,35.02 48.52,35.02 C47.35,35.02 45.56,35.45 43.72,37.51 C39.45,42.28 37.7,52.31 39.03,64.34 C39.93,72.47 37.23,79.89 37.2,79.96 L34.84,86.27 L41.12,83.8 C41.15,83.77 45.72,82 52,82 L53.41,82 L54.31,80.92 C54.44,80.76 67.83,64.98 85.01,64.98 C96.29,64.98 107.07,69.53 113.85,77.16 C118.54,82.44 120.74,88.65 120.03,94.65 C118.94,103.89 114.83,110.83 107.8,115.3 C100.36,120.01 91.3,121 85,121 C83.6,121 81.96,121.01 80.12,121.03 C77.79,121.05 75.14,121.07 72.26,121.07 C60.39,121.07 42.84,120.73 27.62,117.83 C18.65,116.12 12.83,113.53 9.8,109.92 C7.19,106.81 6.92,103.06 7,99.47 C7.16,92.81 10.2,70.53 13.21,61.43 C17.6,48.13 24.64,34.03 28.92,28.08 C34.62,20.14 49.04,7.39 63.45,6.96 L63.54,6.95 M63.54,3.95 L63.36,3.95 C47.55,4.42 32.26,18.26 26.48,26.32 C22.07,32.47 14.94,46.62 10.36,60.48 C7.34,69.64 4.17,92.25 4,99.39 C3.79,108.12 5.85,116.72 27.06,120.77 C42.15,123.65 59.53,124.07 72.26,124.07 C77.43,124.07 81.83,124 85,124 C102,124 120.39,117.21 123,95 C125,78 107,61.98 85,61.98 C66.15,61.98 52,79 52,79 C45,79 40,81 40,81 C40,81 43,73 42,64 C40.01,46.06 45.4,38.01 48.51,38.01 C48.62,38.01 48.73,38.02 48.84,38.04 C52.3,38.73 56.5,39.56 60.28,39.56 C64.06,39.56 67.42,38.73 69.23,36.11 C71.48,32.86 69.97,31.16 69.97,31.16 C69.97,31.16 74.14,30.57 75.73,27.89 C77.46,24.98 77.5,21.36 75.83,18.41 L69.97,8.09 C68.64,5.74 66.23,3.95 63.54,3.95 Z" fill="#E6B77E"/>
  <path d="M62.78,18.52 C60.27,18.05 57.28,17.95 54.95,19.13 C52.06,20.6 51.05,24.41 52.73,27.18 C55.25,31.31 62.06,31.71 66.37,31.54 C68.29,31.46 68.3,28.46 66.37,28.54 C63.26,28.66 59.38,28.5 56.67,26.85 C54.73,25.66 54.07,22.94 56.46,21.73 C58,20.94 60.31,21.11 61.97,21.42 C63.87,21.76 64.68,18.87 62.78,18.52 Z" fill="#E6B77E"/>
  <path d="M36.2,82.74 C31.4,89.73 30.16,96.76 31.86,105.04 C32.25,106.93 35.14,106.13 34.75,104.24 C33.21,96.72 34.43,90.6 38.79,84.25 C39.89,82.66 37.29,81.16 36.2,82.74 Z" fill="#E6B77E"/>
  <path d="M47.77,34.91 C45.55,34.59 42.38,31.9 41.06,29.06 C40.66,28.2 40.83,26.98 39.26,26.89 C37.09,26.77 38.68,31.13 39.42,32.2 C41.45,35.11 44.2,36.74 47.8,37 C49.73,37.14 49.75,35.19 47.77,34.91 Z" fill="#E6B77E"/>
  <path d="M53.55,92.4 C56.07,102.81 65.51,110.57 75.92,111.98 C85.97,113.34 102.85,111.01 107.8,100.26 C108.6,98.52 106.02,96.99 105.21,98.75 C100.68,108.6 84.51,110.46 75.43,108.9 C66.54,107.37 58.6,100.53 56.45,91.61 C55.99,89.73 53.1,90.52 53.55,92.4 Z" fill="#E6B77E"/>
</svg>
